packages/astro-components-stencil/src/icons/person-add.svg

<svg xmlns="http://www.w3.org/2000/svg" viewBox="0 0 24 24"><g xmlns="http://www.w3.org/2000/svg" id="person-add" fill-rule="nonzero">
            <path d="M15 12c2.21 0 4-1.79 4-4s-1.79-4-4-4-4 1.79-4 4 1.79 4 4 4zm-9-2V8c0-.55-.45-1-1-1s-1 .45-1 1v2H2c-.55 0-1 .45-1 1s.45 1 1 1h2v2c0 .55.45 1 1 1s1-.45 1-1v-2h2c.55 0 1-.45 1-1s-.45-1-1-1H6zm9 4c-2.67 0-8 1.34-8 4v1c0 .55.45 1 1 1h14c.55 0 1-.45 1-1v-1c0-2.66-5.33-4-8-4z"/>
        </g></svg>

<svg width="24" height="24" viewBox="0 0 24 24" fill="none" xmlns="http://www.w3.org/2000/svg">
<path fill-rule="evenodd" clip-rule="evenodd" d="M15 12C17.21 12 19 10.21 19 8C19 5.79 17.21 4 15 4C12.79 4 11 5.79 11 8C11 10.21 12.79 12 15 12ZM6 10V8C6 7.45 5.55 7 5 7C4.45 7 4 7.45 4 8V10H2C1.45 10 1 10.45 1 11C1 11.55 1.45 12 2 12H4V14C4 14.55 4.45 15 5 15C5.55 15 6 14.55 6 14V12H8C8.55 12 9 11.55 9 11C9 10.45 8.55 10 8 10H6ZM7 18C7 15.34 12.33 14 15 14C17.67 14 23 15.34 23 18V19C23 19.55 22.55 20 22 20H8C7.45 20 7 19.55 7 19V18Z" fill="black"/>
</svg>
